Assets/ico-file.svg

<svg version="1.1" xmlns="http://www.w3.org/2000/svg" width="32" height="32" viewBox="0 0 32 32">
<path d="M28.681 7.159c-0.694-0.947-1.662-2.053-2.724-3.116s-2.169-2.030-3.116-2.724c-1.612-1.182-2.393-1.319-2.841-1.319h-15.5c-1.378 0-2.5 1.121-2.5 2.5v27c0 1.378 1.122 2.5 2.5 2.5h23c1.378 0 2.5-1.122 2.5-2.5v-19.5c0-0.448-0.137-1.23-1.319-2.841zM24.543 5.457c0.959 0.959 1.712 1.825 2.268 2.543h-4.811v-4.811c0.718 0.556 1.584 1.309 2.543 2.268zM28 29.5c0 0.271-0.229 0.5-0.5 0.5h-23c-0.271 0-0.5-0.229-0.5-0.5v-27c0-0.271 0.229-0.5 0.5-0.5 0 0 15.499-0 15.5 0v7c0 0.552 0.448 1 1 1h7v19.5z" fill="#61666D"></path>
</svg>

<svg xmlns="http://www.w3.org/2000/svg" width="32" height="32" viewBox="0 0 32 32"><path fill="#61666d" d="M28.681 7.159c-.694-.947-1.662-2.053-2.724-3.116s-2.169-2.03-3.116-2.724C21.229.137 20.448 0 20 0H4.5A2.503 2.503 0 0 0 2 2.5v27C2 30.878 3.122 32 4.5 32h23c1.378 0 2.5-1.122 2.5-2.5V10c0-.448-.137-1.23-1.319-2.841m-4.138-1.702A27 27 0 0 1 26.811 8H22V3.189a27 27 0 0 1 2.543 2.268M28 29.5c0 .271-.229.5-.5.5h-23a.507.507 0 0 1-.5-.5v-27c0-.271.229-.5.5-.5H20v7a1 1 0 0 0 1 1h7z"/></svg>
